Catalina-light/actions/16/image-sharpen-symbolic.svg

<?xml version="1.0" encoding="UTF-8" standalone="no"?>
<svg
   xmlns:dc="http://purl.org/dc/elements/1.1/"
   xmlns:cc="http://creativecommons.org/ns#"
   xmlns:rdf="http://www.w3.org/1999/02/22-rdf-syntax-ns#"
   xmlns:svg="http://www.w3.org/2000/svg"
   xmlns="http://www.w3.org/2000/svg"
   xmlns:sodipodi="http://sodipodi.sourceforge.net/DTD/sodipodi-0.dtd"
   xmlns:inkscape="http://www.inkscape.org/namespaces/inkscape"
   viewBox="0 0 16 16"
   id="svg3489"
   version="1.1"
   inkscape:version="0.91 r13725"
   sodipodi:docname="image-sharpen-symbolic.svg">
  <metadata
     id="metadata3497">
    <rdf:RDF>
      <cc:Work
         rdf:about="">
        <dc:format>image/svg+xml</dc:format>
        <dc:type
           rdf:resource="http://purl.org/dc/dcmitype/StillImage" />
      </cc:Work>
    </rdf:RDF>
  </metadata>
  <sodipodi:namedview
     pagecolor="#ffffff"
     bordercolor="#666666"
     borderopacity="1"
     objecttolerance="10"
     gridtolerance="10"
     guidetolerance="10"
     inkscape:pageopacity="0"
     inkscape:pageshadow="2"
     inkscape:window-width="640"
     inkscape:window-height="480"
     id="namedview3495"
     showgrid="false"
     inkscape:zoom="39.8125"
     inkscape:cx="7.0957614"
     inkscape:cy="8"
     inkscape:current-layer="svg3489" />
  <defs
     id="defs3051">
    <style
       type="text/css"
       id="current-color-scheme">
      .ColorScheme-Text {
        color:#bebebe;
      }
      </style>
  </defs>
  <path
     style="color:#bebebe;fill:currentColor;fill-opacity:1;stroke:none"
     class="ColorScheme-Text"
     d="M 8,3 7.3493976,4.1111111 2.7228916,11.840579 2,13 3.3734939,13 12.626506,13 14,13 13.277109,11.840579 8.6506024,4.1111111 8,3 Z m 0,2.9710145 3.277108,5.4830915 -6.5542165,0 L 8,5.9710145 Z"
     id="path3493"
     inkscape:connector-curvature="0" />
</svg>

<svg version="1.1" viewBox="0 0 16 16" xmlns="http://www.w3.org/2000/svg">
<defs>
<style id="current-color-scheme" type="text/css">.ColorScheme-Text {
        color:#bebebe;
      }</style>
</defs>
<path class="ColorScheme-Text" d="m8 3-0.6506 1.1111-4.6265 7.7295-0.72289 1.1594h1.3735 9.253 1.3735l-0.72289-1.1594-4.6265-7.7295-0.6506-1.1111zm0 2.971 3.2771 5.4831h-6.5542l3.2771-5.4831z" color="#bebebe" fill="currentColor"/>
</svg>
